X:1     %Music
T:Some Folks Do
B:Singing Together, Autumn 1974, BBC Publications
F:http://www.folkinfo.org/songs
M:2/4     %Meter
L:1/16     %
K:F
A2A2 A2A2 |c8 |B2B2 G4 |A2A2 F4 |
w:Some folks like to sigh, Some folks do, some folks do, 
A2A2 A2A2 |c6 B2 |A2c2 B2G2 |F8 |
w:Some folks like to die, But that's not me nor you. 
d4 c3B |BAGF E2C2 |F2F2 G2G2 |A6 
w:Long live the mer-ry, mer-ry heart That laughs by night and day, 
AB |c4 f4 |c6 B2 |AAG2 B2G2 |F8 |]
w:Like the  Queen of mirth, No mat-ter what some folks say. 